X: 1
T:The Mucking of Geordie's Byre  " "
M:6/8
L:1/8
Q:80
C:Traditional
S:March
K:HP
|: e|
{g}A2{GdGe}A{g}A/2{d}G3/2A|
{Gdc}d2e{gfg}f2a|
{f}g2e{gfg}f2d|  !
{g}e3/2f/2{g}d{g}B3/2c/2d|
{g}A2{GdGe}A{g}A/2{d}G3/2A|
{Gdc}d2e{g}f2{gf}g|  !
a3/2f/2{g}d{g}e3/2f/2{g}e|
{Gdc}d3{gdG}d2:| |:
{g}e/2f/2|  !
g2{GdG}g{f}g3/2a/2g|
{a}f2{GdG}f{g}f/2a3/2f|
{g}e2{GdG}e{g}e3/2f/2g|  !
{a}f3/2e/2{g}d{g}B3/2c/2d/2|
{g}A2{GdGe}A{g}A/2{d}G3/2A|
{Gdc}d2e{g}f2{gf}g|  !
a3/2f/2{g}d{g}e3/2f/2{g}e|
{Gdc}d3{gdG}d2:|
